_site/assets/images/rrss/mail.svg

<svg enable-background="new 0 0 1000 1000" viewBox="0 0 1000 1000" xmlns="http://www.w3.org/2000/svg"><path d="m910.5 63h-821c-43.9 0-79.5 35.5-79.5 79.4v715.1c0 43.9 35.6 79.5 79.5 79.5h821.1c43.9 0 79.5-35.6 79.5-79.5v-715.1c-.1-43.9-35.7-79.4-79.6-79.4zm-847.5 105.9c0-29.2 23.7-53 53-53h768.1c28.1 0 51 22.1 52.7 49.9v131.8c-4.7 2-9.7 4.7-12.2 5.9l-422.2 214.4c-.8-.5-1.3-1.3-2.2-1.7l-415.8-225.4c-5.1-2.8-14.3-8.3-21.5-10v-111.9zm874 662.2c0 29.2-23.7 53-53 53h-768.1c-29.2 0-53-23.7-53-53v-457.6-34.2l412.9 223.8c5.2 2.7 10.7 6.5 16.1 8 2.4 1.6 5 2.7 8.1 2.7 2.6 0 4.9-.8 7-1.9 6.1-.8 12.8-5.3 18.6-8.2l411.1-208.8v72h.3z" fill="#fff"/></svg>

<?xml version="1.0" encoding="utf-8"?>
<!-- Svg Vector Icons : http://www.onlinewebfonts.com/icon -->
<!DOCTYPE svg PUBLIC "-//W3C//DTD SVG 1.1//EN" "http://www.w3.org/Graphics/SVG/1.1/DTD/svg11.dtd">
<svg version="1.1" xmlns="http://www.w3.org/2000/svg" xmlns:xlink="http://www.w3.org/1999/xlink" x="0px" y="0px" viewBox="0 0 1000 1000" enable-background="new 0 0 1000 1000" xml:space="preserve">
<metadata> Svg Vector Icons : http://www.onlinewebfonts.com/icon </metadata>
<g><path fill="white" d="M910.5,63H89.5C45.6,63,10,98.5,10,142.4v715.1c0,43.9,35.6,79.5,79.5,79.5h821.1c43.9,0,79.5-35.6,79.5-79.5V142.4C990,98.5,954.4,63,910.5,63z M63,168.9c0-29.2,23.7-53,53-53h768.1c28.1,0,51,22.1,52.7,49.9v131.8c-4.7,2-9.7,4.7-12.2,5.9L502.4,517.9c-0.8-0.5-1.3-1.3-2.2-1.7L84.4,290.8c-5.1-2.8-14.3-8.3-21.5-10V168.9z M937,831.1c0,29.2-23.7,53-53,53H115.9c-29.2,0-53-23.7-53-53V373.5v-34.2l412.9,223.8c5.2,2.7,10.7,6.5,16.1,8c2.4,1.6,5,2.7,8.1,2.7c2.6,0,4.9-0.8,7-1.9c6.1-0.8,12.8-5.3,18.6-8.2l411.1-208.8v72h0.3V831.1z"/></g>
</svg>
